X:10
T:Saint Patrick's Day
M:6/8
L:1/8
Q:120
C:Traditional
K:G
D2 |:GAG GBc |ded dBG |AGA BGD |1 EGE E2 D :|2E2 F G2 B |
|def gag |fed edB | def gag |fed e2 d |
def gag |fed efg | GAG GBc |ded dBG |AGA BGD |EGE E2 D |
GAG GBc |ded dBG |AGA BGD |E2 F G2 D ||
